storage/app/icons/tabler/filled/arrow-big-left-line.svg

<!--
version: "2.1"
unicode: "f6ca"
-->
<svg
  xmlns="http://www.w3.org/2000/svg"
  width="24"
  height="24"
  viewBox="0 0 24 24"
  fill="currentColor"
>
  <path d="M9.586 4l-6.586 6.586a2 2 0 0 0 0 2.828l6.586 6.586a2 2 0 0 0 2.18 .434l.145 -.068a2 2 0 0 0 1.089 -1.78v-2.586h5a1 1 0 0 0 1 -1v-6l-.007 -.117a1 1 0 0 0 -.993 -.883l-5 -.001v-2.585a2 2 0 0 0 -3.414 -1.414z" />
  <path d="M4.415 12l6.585 -6.586v3.586l.007 .117a1 1 0 0 0 .993 .883l5 -.001v4l-5 .001a1 1 0 0 0 -1 1v3.586l-6.585 -6.586z" />
  <path d="M21 8a1 1 0 0 1 .993 .883l.007 .117v6a1 1 0 0 1 -1.993 .117l-.007 -.117v-6a1 1 0 0 1 1 -1z" />
</svg>

<svg xmlns="http://www.w3.org/2000/svg" width="24" height="24" fill="currentColor" viewBox="0 0 24 24"><path d="M9.586 4 3 10.586a2 2 0 0 0 0 2.828L9.586 20a2 2 0 0 0 2.18.434l.145-.068A2 2 0 0 0 13 18.586V16h5a1 1 0 0 0 1-1V9l-.007-.117A1 1 0 0 0 18 8l-5-.001V5.414A2 2 0 0 0 9.586 4"/><path d="M4.415 12 11 5.414V9l.007.117A1 1 0 0 0 12 10l5-.001v4L12 14a1 1 0 0 0-1 1v3.586zM21 8a1 1 0 0 1 .993.883L22 9v6a1 1 0 0 1-1.993.117L20 15V9a1 1 0 0 1 1-1"/></svg>
